melody-of-light/img/icons/icomoon/show-pass.svg

<svg width="18" height="18" viewBox="0 0 18 18" fill="none" xmlns="http://www.w3.org/2000/svg">
<path fill-rule="evenodd" clip-rule="evenodd" d="M5.65703 6.35239C4.6533 7.07453 3.83703 7.95724 3.32239 8.58207C3.11754 8.83078 3.11754 9.16902 3.32239 9.41773C3.83703 10.0426 4.6533 10.9253 5.65703 11.6474C6.66549 12.373 7.81212 12.8999 9.00028 12.8999C10.1884 12.8999 11.3351 12.373 12.3435 11.6474C13.3473 10.9253 14.1635 10.0426 14.6782 9.41773C14.883 9.16902 14.883 8.83078 14.6782 8.58208C14.1635 7.95724 13.3473 7.07453 12.3435 6.35239C11.3351 5.62684 10.1884 5.0999 9.00028 5.0999C7.81212 5.0999 6.66549 5.62684 5.65703 6.35239ZM4.95621 5.3783C6.07029 4.57677 7.46164 3.8999 9.00028 3.8999C10.5389 3.8999 11.9303 4.57677 13.0443 5.3783C14.1632 6.18324 15.054 7.15088 15.6044 7.81916C16.1743 8.511 16.1743 9.48881 15.6044 10.1806C15.054 10.8489 14.1632 11.8166 13.0443 12.6215C11.9303 13.423 10.5389 14.0999 9.00028 14.0999C7.46164 14.0999 6.07029 13.423 4.95621 12.6215C3.83739 11.8166 2.94655 10.8489 2.39612 10.1806C1.82629 9.4888 1.82629 8.511 2.39612 7.81916C2.94655 7.15088 3.83739 6.18324 4.95621 5.3783Z" fill="#93939F"/>
<path fill-rule="evenodd" clip-rule="evenodd" d="M9.00039 7.3499C8.08912 7.3499 7.35039 8.08863 7.35039 8.9999C7.35039 9.91117 8.08912 10.6499 9.00039 10.6499C9.91166 10.6499 10.6504 9.91117 10.6504 8.9999C10.6504 8.08863 9.91166 7.3499 9.00039 7.3499ZM6.15039 8.9999C6.15039 7.42589 7.42638 6.1499 9.00039 6.1499C10.5744 6.1499 11.8504 7.42589 11.8504 8.9999C11.8504 10.5739 10.5744 11.8499 9.00039 11.8499C7.42638 11.8499 6.15039 10.5739 6.15039 8.9999Z" fill="#93939F"/>
</svg>

<svg width="18" height="18" fill="none" xmlns="http://www.w3.org/2000/svg"><path fill-rule="evenodd" clip-rule="evenodd" d="M5.657 6.352c-1.004.723-1.82 1.605-2.335 2.23a.645.645 0 000 .836c.515.625 1.331 1.507 2.335 2.23C6.665 12.372 7.812 12.9 9 12.9c1.188 0 2.335-.527 3.344-1.253 1.003-.722 1.82-1.604 2.334-2.23a.645.645 0 000-.835c-.514-.625-1.33-1.507-2.335-2.23C11.335 5.627 10.189 5.1 9 5.1c-1.188 0-2.335.527-3.343 1.252zm-.7-.974C6.07 4.577 7.461 3.9 9 3.9c1.539 0 2.93.677 4.044 1.478 1.12.805 2.01 1.773 2.56 2.441.57.692.57 1.67 0 2.362-.55.668-1.44 1.636-2.56 2.44C11.93 13.423 10.54 14.1 9 14.1c-1.538 0-2.93-.677-4.044-1.479-1.119-.804-2.01-1.772-2.56-2.44a1.845 1.845 0 010-2.362c.55-.668 1.441-1.636 2.56-2.44z" fill="#93939F"/><path fill-rule="evenodd" clip-rule="evenodd" d="M9 7.35a1.65 1.65 0 100 3.3 1.65 1.65 0 000-3.3zM6.15 9a2.85 2.85 0 115.7 0 2.85 2.85 0 01-5.7 0z" fill="#93939F"/></svg>
